X:1
T:Title
%%score { ( 1 3 ) | ( 2 4 ) }
L:1/8
M:4/4
K:F
V:1 treble nm="Grand Piano"
V:3 treble 
V:2 bass 
V:4 bass 
V:1
 z4 z2[Q:1/4=100] C>C | F2 A2 [EG]2 [EB]2 | A3 G F2 F>G | A2 c2 B2 d2 | c6 z2 | d2 c2 A2 c2 | %6
 d2 c2 A2 A2 | G2 F2 D2 A2 | [EG]6 C>C | F2 A2 [EG]2 [EB]2 | A3 G F2 F>G | A2 c2 B2 d2 | c6 z2 | %13
 [Ff]2 [Ff]2 [F=B]2 [FB]2 | [Fc]3 [Fd] [Fc]2 [FA]2 | [Ec]2 [DEB]2 [CFA]2 [B,EG]2 |[M:3/4] [A,CF]6 | %17
[M:1/4] C>F |[M:4/4] A4 A4 | B4 z4 | B4 d4 | c6 z2 | C2 c2 C2 c2 | z2 c2 c2 G,>A, | %24
 B,2 c2 B,2 [Bc]2 | z2 c2 c2 C>F | A4 A4 | B4 z4 | B4 d4 | c6 z2 | [Ff]2 [Ff]2 [F=B]2 [FB]2 | %31
 [Fc]3 [Fd] [Fc]2 [FA]2 | [Ec]2 [DEB]2 [CEA]2 [B,EG]2 |[M:3/4] [A,CF]6 |] %34
V:2
 z4 z2 C,>C, | [F,A,C]2 [F,CF]2 [C,C]2 [C,C]2 | [F,CF]3 [F,B,F] [F,A,]2 [F,A,]>[K:treble][F,B,F] | %3
 [F,CF]2 [A,CF]2 [B,DF]2 [B,F]2 | [A,CF]2[K:bass] [G,B,]2 [F,A,]2[K:treble] [F,A,F]2 | %5
 [B,F]2 [A,CF]2 [F,CF]2 [A,CF]2 | [B,F]2 [A,CF]2[K:bass] [F,CF]2 [F,CF]2 | %7
 [G,=B,D]2 [G,B,D]2 [G,B,]2 [G,B,F]2 | [C,B,]6 [C,B,]>[C,B,] | [F,A,C]2 [F,CF]2 [C,C]2 [C,C]2 | %10
 [F,CF]3 [F,B,F] [F,A,]2 [F,A,]>[K:treble][F,B,F] | [F,CF]2 [A,CF]2 [B,DF]2 [B,F]2 | %12
 [A,CF]2[K:bass] [G,B,]2 [F,A,]2 [F,A,F]2 | [^C,_A,]2 [C,A,]2 [C,A,]2 [C,A,]2 | %14
 [C,A,]3 [C,A,] [C,A,]2 [C,C]2 | [C,G,]2 C,2 C,2 C,2 |[M:3/4] F,6 |[M:1/4] z2 | %18
[M:4/4] z2 C2 z2 C2 | [G,,G,]4 z4 | z2 C2 z2 D2 | z2[K:treble] C2 C2 z2 | z2 [DFA]2 z2 [A,FA]2 | %23
 z2 [EG]2 [EG]2 z2 | z2 [CEG]2 z2 [G,G]2 | z2 [FA]2 [FA]2 z2 | z2 C2 z2 C2 | [G,,G,]4 z4 | %28
 z2 C2 z2 D2 | z2 C2 C2 F,>F, | [^C,_A,]2 [C,A,]2 [C,A,]2 [C,A,]2 | [C,A,]3 [C,A,] [C,A,]2 [C,C]2 | %32
 [C,G,]2 C,2 C,2 C,2 |[M:3/4] F,6 |] %34
V:3
 x8 | x8 | x8 | x8 | z2 E2 F2 c2 | x8 | x8 | x8 | x8 | x8 | x8 | x8 | z2 E2 F2 c2 | x8 | x8 | x8 | %16
[M:3/4] x6 |[M:1/4] x2 |[M:4/4] z2 F2 z2 _E2 | z2 E2 [CE]2 G>A | z2 E2 z2 F2 | z2 F2 F2 A,>B, | %22
 x8 | B,6 z2 | x8 | A,6 z2 | z2 F2 z2 _E2 | z2 E2 [CE]2 G>A | z2 E2 z2 F2 | z2 F2 F2 F>F | x8 | %31
 x8 | x8 |[M:3/4] x6 |] %34
V:4
 x8 | x8 | x15/2[K:treble] x/ | x8 | x2[K:bass] x4[K:treble] x2 | x8 | x4[K:bass] x4 | x8 | x8 | %9
 x8 | x15/2[K:treble] x/ | x8 | x2[K:bass] x6 | x8 | x8 | x8 |[M:3/4] x6 |[M:1/4] x2 | %18
[M:4/4] [F,,F,]4 [^F,,^F,]4 | z2 C2 [C,,C,]4 | [G,,G,]4 [_A,,_A,]4 | [A,,A,]6[K:treble] z2 | x8 | %23
 x8 | x8 | x8 | [F,,F,]4 [^F,,^F,]4 | z2 C2 [C,,C,]4 | [G,,G,]4 [_A,,_A,]4 | [A,,A,]6 z2 | x8 | %31
 x8 | x8 |[M:3/4] x6 |] %34

